X:1
T:Nenthorn, 64.64.664
T:Nenthorn, 64.64.664
T:Thomas Legerwood Hately (1815-1867)
T:Public Domain Courtesy of the Cyber Hymnal™
C:Thomas Legerwood Hately (1815-1867)
Z:Public Domain
Z:Courtesy of the Cyber Hymnal™
%%score ( 1 2 ) ( 3 4 )
L:1/8
Q:1/4=105
M:3/4
K:Eb
V:1 treble 
V:2 treble 
V:3 bass 
V:4 bass 
V:1
 [EG]2 [EB]2 [Ec]2 | [EB]3 [FA] [EG]2 | (GF) [B,E]2 [B,D]2 | [B,E]6 | [DF]2 [EG]2 [E=A]2 | %5
 [DB]3 [Fc] [Fd]2 | (dc) [FB]2 [E=A]2 | [DB]6 | [EB]2 [Ee]2 [Ee]2 | [Ed]3 [Ec] [EB]2 | %10
 [FA]2 [Ec]2 [Ec]2 | [DB]3 [DA] [EG]2 | (GF) [B,E]2 [B,D]2 | [B,E]6 |] %14
V:2
 x6 | x6 | C2 x4 | x6 | x6 | x6 | G2 x4 | x6 | x6 | x6 | x6 | x6 | C2 x4 | x6 |] %14
V:3
 [E,B,]2 [E,G,]2 A,2 | [G,B,]3 [D,B,] [E,B,]2 | [A,,A,]2 [B,,G,]2 [B,,F,]2 | [E,G,]6 | %4
 [B,,B,]2 [E,B,]2 [C,C]2 | [G,B,]3 [F,=A,] B,2 | [E,E]2 [F,D]2 [F,C]2 | [B,,B,]6 | %8
 [E,G,]2 [C,G,]2 [G,B,]2 | A,3 A, [G,B,]2 | [F,C]2 A,2 [A,,A,]2 | [B,,F,]3 [B,,F,] [C,E,]2 | %12
 [A,,A,]2 [B,,G,]2 [B,,F,]2 | [E,G,]6 |] %14
V:4
 x4 A,2 | x6 | x6 | x6 | x6 | x4 B,2 | x6 | x6 | x6 | A,3 A, x2 | x2 A,2 x2 | x6 | x6 | x6 |] %14

